packages/netlify-cms-ui-default/src/Icon/images/h1.svg

<svg height="20" viewBox="0 0 22 20" width="22" xmlns="http://www.w3.org/2000/svg"><path d="m147 10h10v12h-10zm2 0v5h6v-5zm0 7v5h6v-5zm12.068 5v-5.695h-.026l-1.612.767-.325-1.482 2.236-1.04h1.638v7.45z" fill="#7a8291" transform="translate(-144 -6)"/></svg>

<svg xmlns="http://www.w3.org/2000/svg" width="22" height="20" viewBox="0 0 22 20"><path fill="#7A8291" d="M147,10 L157,10 L157,22 L147,22 L147,10 Z M149,10 L149,15 L155,15 L155,10 L149,10 Z M149,17 L149,22 L155,22 L155,17 L149,17 Z M161.068,22 L161.068,16.305 L161.042,16.305 L159.43,17.072 L159.105,15.59 L161.341,14.55 L162.979,14.55 L162.979,22 L161.068,22 Z" transform="translate(-144 -6)"/></svg>
